resources/svg/wifi-medium-duotone.svg

<svg xmlns="http://www.w3.org/2000/svg" viewBox="0 0 256 256" fill="currentColor"><g opacity="0.2"><path d="M134.04032,208.88089a7.93583,7.93583,0,0,1-12.14044-.0705L50.36222,124.49611a120.01033,120.01033,0,0,1,155.27524-.00029Z"/></g><path d="M246.84082,80.49759a15.76543,15.76543,0,0,0-6.231-10.95215c-66.30273-50.03515-158.9165-50.03515-225.22021,0l-.00049.00049A15.73794,15.73794,0,0,0,9.17871,80.482,16.28082,16.28082,0,0,0,12.93945,92.7554l102.86035,121.231a16.025,16.025,0,0,0,12.23243,5.6836h.00048a15.85715,15.85715,0,0,0,12.10791-5.61329L243.09229,92.71732A16.20976,16.20976,0,0,0,246.84082,80.49759Zm-221.814,1.81983L20.2085,75.93119l4.81884,6.38574ZM128,203.6348,61.83832,125.65671a111.89173,111.89173,0,0,1,132.32336-.0003Zm102.89209-121.269-26.342,31.04675a128.00156,128.00156,0,0,0-153.10028.00043L25.14014,82.40433a.23242.23242,0,0,1-.05957-.12744c60.625-45.71143,145.28173-45.69971,205.85693-.01953A.138.138,0,0,1,230.89209,82.36576Z"/></svg>

<svg xmlns="http://www.w3.org/2000/svg" viewBox="0 0 256 256" fill="currentColor"><g opacity="0.2"><path d="M134,208.9a7.9,7.9,0,0,1-12.1-.1L50.4,124.5a119.9,119.9,0,0,1,155.2,0Z"/></g><path d="M246.8,80.5a15.7,15.7,0,0,0-6.2-11c-66.3-50-158.9-50-225.2,0h0a16.1,16.1,0,0,0-6.2,11,16.6,16.6,0,0,0,3.7,12.3L115.8,214a16.1,16.1,0,0,0,12.2,5.7h0a16,16,0,0,0,12.1-5.6l103-121.4A16,16,0,0,0,246.8,80.5ZM25,82.3l-4.8-6.4L25,82.3ZM128,203.6,61.8,125.7a111.8,111.8,0,0,1,132.4,0ZM230.9,82.4l-26.3,31a128.1,128.1,0,0,0-153.1,0l-26.4-31h0c60.6-45.7,145.3-45.7,205.8,0Z"/></svg>
